icon/fa/oil-can.svg

<svg xmlns="http://www.w3.org/2000/svg" viewBox="0 0 640 512"><!--! Font Awesome Free 6.1.2 by @fontawesome - https://fontawesome.com License - https://fontawesome.com/license/free (Icons: CC BY 4.0, Fonts: SIL OFL 1.1, Code: MIT License) Copyright 2022 Fonticons, Inc.--><path d="M288 128v32h80.9c9.9 0 19.7 2.3 28.6 6.8L448 192l167-35.8c18.1-3.9 30.7 17.6 18.5 31.5L451.1 394.3c-13 13.8-29.6 21.7-48 21.7H144c-26.5 0-48-21.5-48-48v-21.3l-67.49-30C11.17 308.1 0 291.8 0 272.8V208c0-26.5 21.49-48 48-48h176v-32h-32c-17.7 0-32-14.3-32-32 0-17.67 14.3-32 32-32h128c17.7 0 32 14.33 32 32 0 17.7-14.3 32-32 32h-32zM96 208H48v64.8l48 21.3V208z"/></svg>

<svg xmlns="http://www.w3.org/2000/svg" viewBox="0 0 640 512" height="1em" width="1em">
<!--! Font Awesome Free 6.1.2 by @fontawesome - https://fontawesome.com License - https://fontawesome.com/license/free (Icons: CC BY 4.0, Fonts: SIL OFL 1.1, Code: MIT License) Copyright 2022 Fonticons, Inc.-->
  <path d="M288 128V160H368.9C378.8 160 388.6 162.3 397.5 166.8L448 192L615 156.2C633.1 152.3 645.7 173.8 633.5 187.7L451.1 394.3C438.1 408.1 421.5 416 403.1 416H144C117.5 416 96 394.5 96 368V346.7L28.51 316.7C11.17 308.1 0 291.8 0 272.8V208C0 181.5 21.49 160 48 160H224V128H192C174.3 128 160 113.7 160 96C160 78.33 174.3 64 192 64H320C337.7 64 352 78.33 352 96C352 113.7 337.7 128 320 128L288 128zM96 208H48V272.8L96 294.1V208z"/>
</svg>
